static/img/device/component-extm-sc.svg

<svg width="232" height="110" viewBox="0 0 232 110" fill="none" xmlns="http://www.w3.org/2000/svg">
<g clip-path="url(#clip0_820_53936)">
<path d="M8.09 109.34C3.91 109.34 0.5 105.94 0.5 101.75V8.09C0.5 3.9 3.9 0.5 8.09 0.5H223.44C227.62 0.5 231.03 3.9 231.03 8.09V101.76C231.03 105.94 227.63 109.35 223.44 109.35H8.09V109.34ZM219.91 94.03C217.61 94.03 215.75 95.9 215.75 98.19C215.75 100.48 217.62 102.35 219.91 102.35C222.2 102.35 224.07 100.48 224.07 98.19C224.07 95.9 222.2 94.03 219.91 94.03ZM11.53 96.12C10.39 96.12 9.46 97.05 9.46 98.19C9.46 99.33 10.39 100.26 11.53 100.26C12.67 100.26 13.6 99.33 13.6 98.19C13.6 97.05 12.67 96.12 11.53 96.12ZM11.55 7.72C9.25 7.72 7.37 9.59 7.37 11.9C7.37 14.21 9.24 16.08 11.55 16.08C13.86 16.08 15.73 14.21 15.73 11.9C15.73 9.59 13.86 7.72 11.55 7.72ZM219.9 9.83C218.77 9.83 217.85 10.75 217.85 11.88C217.85 13.01 218.77 13.93 219.9 13.93C221.03 13.93 221.95 13.01 221.95 11.88C221.95 10.75 221.03 9.83 219.9 9.83Z" fill="white"/>
<path d="M223.44 1C227.34 1 230.53 4.19 230.53 8.09V101.76C230.53 105.66 227.34 108.85 223.44 108.85H8.09C4.19 108.85 1 105.66 1 101.76V8.09C1 4.19 4.19 1 8.09 1H223.44ZM11.55 16.58C14.13 16.58 16.23 14.49 16.23 11.9C16.23 9.31 14.14 7.22 11.55 7.22C8.96 7.22 6.87 9.31 6.87 11.9C6.87 14.49 8.96 16.58 11.55 16.58ZM219.9 14.42C221.31 14.42 222.45 13.28 222.45 11.87C222.45 10.46 221.31 9.32 219.9 9.32C218.49 9.32 217.35 10.46 217.35 11.87C217.35 13.28 218.49 14.42 219.9 14.42ZM219.91 102.86C222.49 102.86 224.57 100.77 224.57 98.2C224.57 95.63 222.48 93.54 219.91 93.54C217.34 93.54 215.25 95.63 215.25 98.2C215.25 100.77 217.34 102.86 219.91 102.86ZM11.53 100.77C12.95 100.77 14.1 99.62 14.1 98.2C14.1 96.78 12.95 95.63 11.53 95.63C10.11 95.63 8.96 96.78 8.96 98.2C8.96 99.62 10.11 100.77 11.53 100.77ZM223.44 0H8.09C3.63 0 0 3.63 0 8.09V101.76C0 106.22 3.63 109.85 8.09 109.85H223.44C227.9 109.85 231.53 106.22 231.53 101.76V8.09C231.53 3.63 227.9 0 223.44 0ZM11.55 15.58C9.52 15.58 7.87 13.93 7.87 11.9C7.87 9.87 9.52 8.22 11.55 8.22C13.58 8.22 15.23 9.87 15.23 11.9C15.23 13.93 13.58 15.58 11.55 15.58ZM219.9 13.42C219.05 13.42 218.35 12.73 218.35 11.87C218.35 11.01 219.04 10.32 219.9 10.32C220.76 10.32 221.45 11.01 221.45 11.87C221.45 12.73 220.76 13.42 219.9 13.42ZM219.91 101.86C217.89 101.86 216.25 100.22 216.25 98.2C216.25 96.18 217.89 94.54 219.91 94.54C221.93 94.54 223.57 96.18 223.57 98.2C223.57 100.22 221.93 101.86 219.91 101.86ZM11.53 99.77C10.66 99.77 9.96 99.06 9.96 98.2C9.96 97.34 10.67 96.63 11.53 96.63C12.39 96.63 13.1 97.34 13.1 98.2C13.1 99.06 12.39 99.77 11.53 99.77Z" fill="#231815"/>
<path d="M161.12 75.64H118.56V108.84H161.12V75.64Z" fill="white" stroke="#040000" stroke-width="0.7" stroke-miterlimit="10" stroke-linecap="round"/>
<path d="M207.91 75.64H165.35V108.84H207.91V75.64Z" fill="white" stroke="#040000" stroke-width="0.7" stroke-miterlimit="10" stroke-linecap="round"/>
<path d="M118.56 80.78H161.11" stroke="#040000" stroke-width="0.3" stroke-miterlimit="10" stroke-linecap="round"/>
<path d="M161.11 83.12H118.56" stroke="#040000" stroke-width="0.3" stroke-miterlimit="10" stroke-linecap="round"/>
<path d="M165.35 80.78H207.9" stroke="#040000" stroke-width="0.3" stroke-miterlimit="10" stroke-linecap="round"/>
<path d="M207.9 83.12H165.35" stroke="#040000" stroke-width="0.3" stroke-miterlimit="10" stroke-linecap="round"/>
<path d="M23.8799 89.71V107.57H32.2799V100.76H33.5499V107.57H48.2199V100.76H49.4999V107.57H57.8999V89.71H23.8799Z" fill="white"/>
<path d="M18.3499 93.96H17.4999L16.6499 94.86V102.46L17.4999 103.22V105.89H23.8499V93.96H18.3499Z" fill="white"/>
<path d="M63.3899 93.96H64.2399L65.0899 94.86V102.46L64.2399 103.22V105.89H57.8999V93.96H63.3899Z" fill="white"/>
<path d="M30.9398 85.46H29.5798V89.73H30.9398V85.46Z" fill="white"/>
<path d="M36.4098 85.46H35.0498V89.73H36.4098V85.46Z" fill="white"/>
<path d="M41.57 85.46H40.21V89.73H41.57V85.46Z" fill="white"/>
<path d="M46.9498 85.46H45.5898V89.73H46.9498V85.46Z" fill="white"/>
<path d="M52.1998 85.46H50.8398V89.73H52.1998V85.46Z" fill="white"/>
<path d="M29.5798 86.73H30.9398" stroke="#040000" stroke-width="0.25" stroke-linecap="round" stroke-linejoin="round"/>
<path d="M34.8899 86.73H36.2499" stroke="#040000" stroke-width="0.25" stroke-linecap="round" stroke-linejoin="round"/>
<path d="M40.21 86.73H41.57" stroke="#040000" stroke-width="0.25" stroke-linecap="round" stroke-linejoin="round"/>
<path d="M45.52 86.73H46.88" stroke="#040000" stroke-width="0.25" stroke-linecap="round" stroke-linejoin="round"/>
<path d="M50.8398 86.73H52.1998" stroke="#040000" stroke-width="0.25" stroke-linecap="round" stroke-linejoin="round"/>
<path d="M18.3499 93.96V105.87" stroke="#040000" stroke-width="0.25" stroke-linecap="round" stroke-linejoin="round"/>
<path d="M21.75 93.96V105.87" stroke="#040000" stroke-width="0.25" stroke-linecap="round" stroke-linejoin="round"/>
<path d="M29.5798 104.59H30.9398" stroke="#040000" stroke-width="0.25" stroke-linecap="round" stroke-linejoin="round"/>
<path d="M29.5798 104.59V100.76" stroke="#040000" stroke-width="0.25" stroke-linecap="round" stroke-linejoin="round"/>
<path d="M30.9399 100.76V104.59" stroke="#040000" stroke-width="0.25" stroke-linecap="round" stroke-linejoin="round"/>
<path d="M29.5798 85.46H30.9398" stroke="#040000" stroke-width="0.35" stroke-linecap="round" stroke-linejoin="round"/>
<path d="M29.5798 89.71V85.46" stroke="#040000" stroke-width="0.35" stroke-linecap="round" stroke-linejoin="round"/>
<path d="M30.9399 89.71V85.46" stroke="#040000" stroke-width="0.35" stroke-linecap="round" stroke-linejoin="round"/>
<path d="M34.8899 104.59H36.2499" stroke="#040000" stroke-width="0.25" stroke-linecap="round" stroke-linejoin="round"/>
<path d="M34.8899 104.59V100.76" stroke="#040000" stroke-width="0.25" stroke-linecap="round" stroke-linejoin="round"/>
<path d="M36.25 100.76V104.59" stroke="#040000" stroke-width="0.25" stroke-linecap="round" stroke-linejoin="round"/>
<path d="M34.8899 85.46H36.2499" stroke="#040000" stroke-width="0.35" stroke-linecap="round" stroke-linejoin="round"/>
<path d="M34.8899 89.71V85.46" stroke="#040000" stroke-width="0.35" stroke-linecap="round" stroke-linejoin="round"/>
<path d="M36.25 89.71V85.46" stroke="#040000" stroke-width="0.35" stroke-linecap="round" stroke-linejoin="round"/>
<path d="M40.21 104.59H41.57" stroke="#040000" stroke-width="0.25" stroke-linecap="round" stroke-linejoin="round"/>
<path d="M40.21 104.59V100.76" stroke="#040000" stroke-width="0.25" stroke-linecap="round" stroke-linejoin="round"/>
<path d="M41.5701 100.76V104.59" stroke="#040000" stroke-width="0.25" stroke-linecap="round" stroke-linejoin="round"/>
<path d="M40.21 85.46H41.57" stroke="#040000" stroke-width="0.35" stroke-linecap="round" stroke-linejoin="round"/>
<path d="M40.21 89.71V85.46" stroke="#040000" stroke-width="0.35" stroke-linecap="round" stroke-linejoin="round"/>
<path d="M41.5701 89.71V85.46" stroke="#040000" stroke-width="0.35" stroke-linecap="round" stroke-linejoin="round"/>
<path d="M45.52 104.59H46.88" stroke="#040000" stroke-width="0.25" stroke-linecap="round" stroke-linejoin="round"/>
<path d="M45.52 104.59V100.76" stroke="#040000" stroke-width="0.25" stroke-linecap="round" stroke-linejoin="round"/>
<path d="M46.8801 100.76V104.59" stroke="#040000" stroke-width="0.25" stroke-linecap="round" stroke-linejoin="round"/>
<path d="M45.52 85.46H46.88" stroke="#040000" stroke-width="0.35" stroke-linecap="round" stroke-linejoin="round"/>
<path d="M45.52 89.71V85.46" stroke="#040000" stroke-width="0.35" stroke-linecap="round" stroke-linejoin="round"/>
<path d="M46.8801 89.71V85.46" stroke="#040000" stroke-width="0.35" stroke-linecap="round" stroke-linejoin="round"/>
<path d="M50.8398 104.59H52.1998" stroke="#040000" stroke-width="0.25" stroke-linecap="round" stroke-linejoin="round"/>
<path d="M50.8398 104.59V100.76" stroke="#040000" stroke-width="0.25" stroke-linecap="round" stroke-linejoin="round"/>
<path d="M52.2 100.76V104.59" stroke="#040000" stroke-width="0.25" stroke-linecap="round" stroke-linejoin="round"/>
<path d="M50.8398 85.46H52.1998" stroke="#040000" stroke-width="0.35" stroke-linecap="round" stroke-linejoin="round"/>
<path d="M50.8398 89.71V85.46" stroke="#040000" stroke-width="0.35" stroke-linecap="round" stroke-linejoin="round"/>
<path d="M52.2 89.71V85.46" stroke="#040000" stroke-width="0.35" stroke-linecap="round" stroke-linejoin="round"/>
<path d="M23.8799 103.32H27.9199" stroke="#040000" stroke-width="0.35" stroke-linecap="round" stroke-linejoin="round"/>
<path d="M53.8599 103.32H57.8999" stroke="#040000" stroke-width="0.35" stroke-linecap="round" stroke-linejoin="round"/>
<path d="M27.9199 100.76H53.8599" stroke="#040000" stroke-width="0.35" stroke-linecap="round" stroke-linejoin="round"/>
<path d="M27.9199 103.32V100.76" stroke="#040000" stroke-width="0.35" stroke-linecap="round" stroke-linejoin="round"/>
<path d="M53.8599 100.76V103.32" stroke="#040000" stroke-width="0.35" stroke-linecap="round" stroke-linejoin="round"/>
<path d="M23.8799 107.57H32.2799" stroke="#040000" stroke-width="0.35" stroke-linecap="round" stroke-linejoin="round"/>
<path d="M33.5498 107.57H48.2198" stroke="#040000" stroke-width="0.35" stroke-linecap="round" stroke-linejoin="round"/>
<path d="M49.5 107.57H57.9" stroke="#040000" stroke-width="0.35" stroke-linecap="round" stroke-linejoin="round"/>
<path d="M23.8799 89.71H57.8999" stroke="#040000" stroke-width="0.35" stroke-linecap="round" stroke-linejoin="round"/>
<path d="M23.8799 107.57V89.71" stroke="#040000" stroke-width="0.35" stroke-linecap="round" stroke-linejoin="round"/>
<path d="M32.2798 107.57V100.76" stroke="#040000" stroke-width="0.35" stroke-linecap="round" stroke-linejoin="round"/>
<path d="M33.5498 107.57V100.76" stroke="#040000" stroke-width="0.35" stroke-linecap="round" stroke-linejoin="round"/>
<path d="M48.22 100.76V107.57" stroke="#040000" stroke-width="0.35" stroke-linecap="round" stroke-linejoin="round"/>
<path d="M49.5 107.57V100.76" stroke="#040000" stroke-width="0.35" stroke-linecap="round" stroke-linejoin="round"/>
<path d="M57.8999 107.57V89.71" stroke="#040000" stroke-width="0.35" stroke-linecap="round" stroke-linejoin="round"/>
<path d="M60.02 93.96V105.87" stroke="#040000" stroke-width="0.25" stroke-linecap="round" stroke-linejoin="round"/>
<path d="M63.4199 93.96V105.87" stroke="#040000" stroke-width="0.25" stroke-linecap="round" stroke-linejoin="round"/>
<path d="M23.88 105.87H17.5" stroke="#040000" stroke-width="0.35" stroke-linecap="round" stroke-linejoin="round"/>
<path d="M17.5 93.96H23.88" stroke="#040000" stroke-width="0.35" stroke-linecap="round" stroke-linejoin="round"/>
<path d="M16.6499 102.47L17.4999 103.32" stroke="#040000" stroke-width="0.35" stroke-linecap="round" stroke-linejoin="round"/>
<path d="M16.6499 94.81V102.47" stroke="#040000" stroke-width="0.35" stroke-linecap="round" stroke-linejoin="round"/>
<path d="M17.5 93.96V105.87" stroke="#040000" stroke-width="0.35" stroke-linecap="round" stroke-linejoin="round"/>
<path d="M17.4999 93.96L16.6499 94.81" stroke="#040000" stroke-width="0.35" stroke-linecap="round" stroke-linejoin="round"/>
<path d="M64.2699 105.87H57.8999" stroke="#040000" stroke-width="0.35" stroke-linecap="round" stroke-linejoin="round"/>
<path d="M57.8999 93.96H64.2699" stroke="#040000" stroke-width="0.35" stroke-linecap="round" stroke-linejoin="round"/>
<path d="M65.12 94.81L64.27 93.96" stroke="#040000" stroke-width="0.35" stroke-linecap="round" stroke-linejoin="round"/>
<path d="M64.27 93.96V105.87" stroke="#040000" stroke-width="0.35" stroke-linecap="round" stroke-linejoin="round"/>
<path d="M65.1199 94.81V102.47" stroke="#040000" stroke-width="0.35" stroke-linecap="round" stroke-linejoin="round"/>
<path d="M64.27 103.32L65.12 102.47" stroke="#040000" stroke-width="0.35" stroke-linecap="round" stroke-linejoin="round"/>
</g>
<defs>
<clipPath id="clip0_820_53936">
<rect width="231.53" height="109.84" fill="white"/>
</clipPath>
</defs>
</svg>

<svg xmlns="http://www.w3.org/2000/svg" width="232" height="110" fill="none" viewBox="0 0 232 110"><g clip-path="url(#a)"><path fill="#fff" d="M8.09 109.34c-4.18 0-7.59-3.4-7.59-7.59V8.09C.5 3.9 3.9.5 8.09.5h215.35c4.18 0 7.59 3.4 7.59 7.59v93.67c0 4.18-3.4 7.59-7.59 7.59H8.09zm211.82-15.31c-2.3 0-4.16 1.87-4.16 4.16a4.17 4.17 0 0 0 4.16 4.16 4.17 4.17 0 0 0 4.16-4.16 4.17 4.17 0 0 0-4.16-4.16M11.53 96.12c-1.14 0-2.07.93-2.07 2.07s.93 2.07 2.07 2.07 2.07-.93 2.07-2.07-.93-2.07-2.07-2.07m.02-88.4c-2.3 0-4.18 1.87-4.18 4.18s1.87 4.18 4.18 4.18 4.18-1.87 4.18-4.18-1.87-4.18-4.18-4.18M219.9 9.83c-1.13 0-2.05.92-2.05 2.05s.92 2.05 2.05 2.05 2.05-.92 2.05-2.05-.92-2.05-2.05-2.05"/><path fill="#231815" d="M223.44 1c3.9 0 7.09 3.19 7.09 7.09v93.67c0 3.9-3.19 7.09-7.09 7.09H8.09c-3.9 0-7.09-3.19-7.09-7.09V8.09C1 4.19 4.19 1 8.09 1zM11.55 16.58a4.68 4.68 0 0 0 4.68-4.68c0-2.59-2.09-4.68-4.68-4.68S6.87 9.31 6.87 11.9s2.09 4.68 4.68 4.68m208.35-2.16c1.41 0 2.55-1.14 2.55-2.55s-1.14-2.55-2.55-2.55-2.55 1.14-2.55 2.55 1.14 2.55 2.55 2.55m.01 88.44c2.58 0 4.66-2.09 4.66-4.66s-2.09-4.66-4.66-4.66-4.66 2.09-4.66 4.66 2.09 4.66 4.66 4.66m-208.38-2.09a2.57 2.57 0 1 0 0-5.14 2.57 2.57 0 1 0 0 5.14M223.44 0H8.09C3.63 0 0 3.63 0 8.09v93.67c0 4.46 3.63 8.09 8.09 8.09h215.35c4.46 0 8.09-3.63 8.09-8.09V8.09c0-4.46-3.63-8.09-8.09-8.09M11.55 15.58c-2.03 0-3.68-1.65-3.68-3.68s1.65-3.68 3.68-3.68 3.68 1.65 3.68 3.68-1.65 3.68-3.68 3.68m208.35-2.16c-.85 0-1.55-.69-1.55-1.55s.69-1.55 1.55-1.55 1.55.69 1.55 1.55-.69 1.55-1.55 1.55m.01 88.44c-2.02 0-3.66-1.64-3.66-3.66s1.64-3.66 3.66-3.66 3.66 1.64 3.66 3.66-1.64 3.66-3.66 3.66M11.53 99.77c-.87 0-1.57-.71-1.57-1.57s.71-1.57 1.57-1.57 1.57.71 1.57 1.57-.71 1.57-1.57 1.57"/><path fill="#fff" stroke="#040000" stroke-linecap="round" stroke-miterlimit="10" stroke-width=".7" d="M161.12 75.64h-42.56v33.2h42.56zM207.91 75.64h-42.56v33.2h42.56z"/><path stroke="#040000" stroke-linecap="round" stroke-miterlimit="10" stroke-width=".3" d="M118.56 80.78h42.55M161.11 83.12h-42.55M165.35 80.78h42.55M207.9 83.12h-42.55"/><path fill="#fff" d="M23.88 89.71v17.86h8.4v-6.81h1.27v6.81h14.67v-6.81h1.28v6.81h8.4V89.71zM18.35 93.96h-.85l-.85.9v7.6l.85.76v2.67h6.35V93.96z"/><path fill="#fff" d="M63.39 93.96h.85l.85.9v7.6l-.85.76v2.67H57.9V93.96zM30.94 85.46h-1.36v4.27h1.36zM36.41 85.46h-1.36v4.27h1.36zM41.57 85.46h-1.36v4.27h1.36zM46.95 85.46h-1.36v4.27h1.36zM52.2 85.46h-1.36v4.27h1.36z"/><path stroke="#040000" stroke-linecap="round" stroke-linejoin="round" stroke-width=".25" d="M29.58 86.73h1.36M34.89 86.73h1.36M40.21 86.73h1.36M45.52 86.73h1.36M50.84 86.73h1.36M18.35 93.96v11.91M21.75 93.96v11.91M29.58 104.59h1.36M29.58 104.59v-3.83M30.94 100.76v3.83"/><path stroke="#040000" stroke-linecap="round" stroke-linejoin="round" stroke-width=".35" d="M29.58 85.46h1.36M29.58 89.71v-4.25M30.94 89.71v-4.25"/><path stroke="#040000" stroke-linecap="round" stroke-linejoin="round" stroke-width=".25" d="M34.89 104.59h1.36M34.89 104.59v-3.83M36.25 100.76v3.83"/><path stroke="#040000" stroke-linecap="round" stroke-linejoin="round" stroke-width=".35" d="M34.89 85.46h1.36M34.89 89.71v-4.25M36.25 89.71v-4.25"/><path stroke="#040000" stroke-linecap="round" stroke-linejoin="round" stroke-width=".25" d="M40.21 104.59h1.36M40.21 104.59v-3.83M41.57 100.76v3.83"/><path stroke="#040000" stroke-linecap="round" stroke-linejoin="round" stroke-width=".35" d="M40.21 85.46h1.36M40.21 89.71v-4.25M41.57 89.71v-4.25"/><path stroke="#040000" stroke-linecap="round" stroke-linejoin="round" stroke-width=".25" d="M45.52 104.59h1.36M45.52 104.59v-3.83M46.88 100.76v3.83"/><path stroke="#040000" stroke-linecap="round" stroke-linejoin="round" stroke-width=".35" d="M45.52 85.46h1.36M45.52 89.71v-4.25M46.88 89.71v-4.25"/><path stroke="#040000" stroke-linecap="round" stroke-linejoin="round" stroke-width=".25" d="M50.84 104.59h1.36M50.84 104.59v-3.83M52.2 100.76v3.83"/><path stroke="#040000" stroke-linecap="round" stroke-linejoin="round" stroke-width=".35" d="M50.84 85.46h1.36M50.84 89.71v-4.25M52.2 89.71v-4.25M23.88 103.32h4.04M53.86 103.32h4.04M27.92 100.76h25.94M27.92 103.32v-2.56M53.86 100.76v2.56M23.88 107.57h8.4M33.55 107.57h14.67M49.5 107.57h8.4M23.88 89.71H57.9M23.88 107.57V89.71M32.28 107.57v-6.81M33.55 107.57v-6.81M48.22 100.76v6.81M49.5 107.57v-6.81M57.9 107.57V89.71"/><path stroke="#040000" stroke-linecap="round" stroke-linejoin="round" stroke-width=".25" d="M60.02 93.96v11.91M63.42 93.96v11.91"/><path stroke="#040000" stroke-linecap="round" stroke-linejoin="round" stroke-width=".35" d="M23.88 105.87H17.5M17.5 93.96h6.38M16.65 102.47l.85.85M16.65 94.81v7.66M17.5 93.96v11.91M17.5 93.96l-.85.85M64.27 105.87H57.9M57.9 93.96h6.37M65.12 94.81l-.85-.85M64.27 93.96v11.91M65.12 94.81v7.66M64.27 103.32l.85-.85"/></g><defs><clipPath id="a"><path fill="#fff" d="M0 0h231.53v109.84H0z"/></clipPath></defs></svg>
